svgs/duotone/memo-circle-check.svg

<svg xmlns="http://www.w3.org/2000/svg" viewBox="0 0 576 512"><!-- Font Awesome Pro 6.0.0-alpha2 by @fontawesome - https://fontawesome.com License - https://fontawesome.com/license (Commercial License) --><defs><style>.fa-secondary{opacity:.4}</style></defs><path d="M384 198.822V64C384 28.652 355.346 0 320 0H64C28.654 0 0 28.652 0 64V448C0 483.346 28.654 512 64 512H320C323.357 512 326.584 511.51 329.803 511.012C285.209 479.051 256 426.926 256 368C256 287.609 310.24 219.787 384 198.822ZM176 352H80C71.164 352 64 344.836 64 336S71.164 320 80 320H176C184.838 320 192 327.164 192 336S184.838 352 176 352ZM240 256H80C71.164 256 64 248.836 64 240S71.164 224 80 224H240C248.838 224 256 231.164 256 240S248.838 256 240 256ZM80 160C71.164 160 64 152.836 64 144S71.164 128 80 128H304C312.838 128 320 135.164 320 144S312.838 160 304 160H80Z" class="fa-secondary"/><path d="M80 160H304C312.838 160 320 152.836 320 144S312.838 128 304 128H80C71.164 128 64 135.164 64 144S71.164 160 80 160ZM176 320H80C71.164 320 64 327.164 64 336S71.164 352 80 352H176C184.838 352 192 344.836 192 336S184.838 320 176 320ZM240 224H80C71.164 224 64 231.164 64 240S71.164 256 80 256H240C248.838 256 256 248.836 256 240S248.838 224 240 224ZM432.002 224C352.463 224 288 288.463 288 368S352.463 512 432.002 512C511.537 512 576 447.537 576 368S511.537 224 432.002 224ZM499.312 341.984L424.656 416.641C421.531 419.766 417.438 421.328 413.344 421.328S405.156 419.766 402.031 416.641L364.688 379.312C358.438 373.062 358.438 362.937 364.688 356.688S381.063 350.438 387.312 356.688L413.344 382.703L476.688 319.359C482.938 313.109 493.063 313.109 499.312 319.359S505.562 335.734 499.312 341.984Z" class="fa-primary"/></svg>

<svg xmlns="http://www.w3.org/2000/svg" viewBox="0 0 576 512"><!--! Font Awesome Pro 6.4.0 by @fontawesome - https://fontawesome.com License - https://fontawesome.com/license (Commercial License) Copyright 2023 Fonticons, Inc. --><defs><style>.fa-secondary{opacity:.4}</style></defs><path class="fa-primary" d="M432 512a144 144 0 1 0 0-288 144 144 0 1 0 0 288zm67.3-164.7l-72 72c-6.2 6.2-16.4 6.2-22.6 0l-40-40c-6.2-6.2-6.2-16.4 0-22.6s16.4-6.2 22.6 0L416 385.4l60.7-60.7c6.2-6.2 16.4-6.2 22.6 0s6.2 16.4 0 22.6z"/><path class="fa-secondary" d="M64 0C28.7 0 0 28.7 0 64V448c0 35.3 28.7 64 64 64H320c3.3 0 6.6-.3 9.7-.7C285.1 479.3 256 427.1 256 368c0-80.6 54.1-148.5 128-169.4V64c0-35.3-28.7-64-64-64H64zM80 128H304c8.8 0 16 7.2 16 16s-7.2 16-16 16H80c-8.8 0-16-7.2-16-16s7.2-16 16-16zM64 240c0-8.8 7.2-16 16-16H240c8.8 0 16 7.2 16 16s-7.2 16-16 16H80c-8.8 0-16-7.2-16-16zm0 96c0-8.8 7.2-16 16-16h96c8.8 0 16 7.2 16 16s-7.2 16-16 16H80c-8.8 0-16-7.2-16-16z"/></svg>
